X:1
T: March of St. Timothy
C:
R:Reel
Q: 232
K:G
M:4/4
L:1/8
|:B3c d2 B2|A3B c2 A2|G3A B2 G2|G2 F2 E2 D2|
E3F G2 E2|D2 G2 B2 d2|c3B A2 G2|1F2 A2 D2 c2:|2F2 A2 G6 dd|
|:c2 d2 A2 c2|F2 A2 D2 dd|B2 d2 G2 B2|D2 G2 B,2 dd|
|1c2 d2 A2 c2|F2 A2 D2 dd|d2 D2 E2 F2|G2 A2 B2 dd:|
|2E3F G2 E2|D2 G2 B2 d2|cB AG F2 A2|G8||
